icons/blade.svg

<svg viewBox="0 0 84.1 57.6" xmlns="http://www.w3.org/2000/svg"><path d="m83.8 26.9c-.6-.6-8.3-10.3-9.6-11.9-1.4-1.6-2-1.3-2.9-1.2s-10.6 1.8-11.7 1.9c-1.1.2-1.8.6-1.1 1.6.6.9 7 9.9 8.4 12l-25.5 6.1-20.2-33.9c-.8-1.2-1-1.6-2.8-1.5-1.8.1-15.9 1.3-16.9 1.3-1 .1-2.1.5-1.1 2.9s17 36.8 17.4 37.8 1.6 2.6 4.3 2c2.8-.7 12.4-3.2 17.7-4.6 2.8 5 8.4 15.2 9.5 16.7 1.4 2 2.4 1.6 4.5 1 1.7-.5 26.2-9.3 27.3-9.8s1.8-.8 1-1.9c-.6-.8-7-9.5-10.4-14 2.3-.6 10.6-2.8 11.5-3.1 1-.3 1.2-.8.6-1.4zm-46.3 9.5c-.3.1-14.6 3.5-15.3 3.7-.8.2-.8.1-.8-.2-.2-.3-17-35.1-17.3-35.5-.2-.4-.2-.8 0-.8s13.5-1.2 13.9-1.2c.5 0 .4.1.6.4 0 0 18.7 32.3 19 32.8.4.5.2.7-.1.8zm40.2 7.5c.2.4.5.6-.3.8-.7.3-24.1 8.2-24.6 8.4s-.8.3-1.4-.6-8.2-14-8.2-14l24.9-6.5c.6-.2.8-.3 1.2.3.4.7 8.2 11.3 8.4 11.6zm1.6-17.6c-.6.1-9.7 2.4-9.7 2.4l-7.5-10.2c-.2-.3-.4-.6.1-.7s9-1.6 9.4-1.7.7-.2 1.2.5c.5.6 6.9 8.8 7.2 9.1s-.1.5-.7.6z" fill="#fb503b"/></svg>

<?xml version="1.0" encoding="utf-8"?>
<!-- Generator: Adobe Illustrator 28.0.0, SVG Export Plug-In . SVG Version: 6.00 Build 0)  -->
<svg version="1.1" id="Layer_1" xmlns="http://www.w3.org/2000/svg" xmlns:xlink="http://www.w3.org/1999/xlink" x="0px" y="0px"
	 viewBox="0 0 84.1 57.6" style="enable-background:new 0 0 84.1 57.6;" xml:space="preserve">
<style type="text/css">
	.st0{fill:#DB5555;}
</style>
<path class="st0" d="M83.8,26.9c-0.6-0.6-8.3-10.3-9.6-11.9c-1.4-1.6-2-1.3-2.9-1.2s-10.6,1.8-11.7,1.9c-1.1,0.2-1.8,0.6-1.1,1.6
	c0.6,0.9,7,9.9,8.4,12l-25.5,6.1L21.2,1.5c-0.8-1.2-1-1.6-2.8-1.5S2.5,1.3,1.5,1.3c-1,0.1-2.1,0.5-1.1,2.9S17.4,41,17.8,42
	s1.6,2.6,4.3,2c2.8-0.7,12.4-3.2,17.7-4.6c2.8,5,8.4,15.2,9.5,16.7c1.4,2,2.4,1.6,4.5,1c1.7-0.5,26.2-9.3,27.3-9.8s1.8-0.8,1-1.9
	c-0.6-0.8-7-9.5-10.4-14c2.3-0.6,10.6-2.8,11.5-3.1C84.2,28,84.4,27.5,83.8,26.9z M37.5,36.4c-0.3,0.1-14.6,3.5-15.3,3.7
	c-0.8,0.2-0.8,0.1-0.8-0.2C21.2,39.6,4.4,4.8,4.1,4.4C3.9,4,3.9,3.6,4.1,3.6c0.2,0,13.5-1.2,13.9-1.2c0.5,0,0.4,0.1,0.6,0.4
	c0,0,18.7,32.3,19,32.8C38,36.1,37.8,36.3,37.5,36.4z M77.7,43.9c0.2,0.4,0.5,0.6-0.3,0.8c-0.7,0.3-24.1,8.2-24.6,8.4
	s-0.8,0.3-1.4-0.6s-8.2-14-8.2-14L68.1,32c0.6-0.2,0.8-0.3,1.2,0.3C69.7,33,77.5,43.6,77.7,43.9z M79.3,26.3
	c-0.6,0.1-9.7,2.4-9.7,2.4l-7.5-10.2c-0.2-0.3-0.4-0.6,0.1-0.7s9-1.6,9.4-1.7s0.7-0.2,1.2,0.5c0.5,0.6,6.9,8.8,7.2,9.1
	S79.9,26.2,79.3,26.3z"/>
</svg>
